X: 37
T: No_32_Turkey_Dance_Song_(c).krn
N: Derived from No_32_Turkey_Dance_Song_(c).krn
%%abc-version 2.0
%%abcx-abcm2ps-target-version 5.9.1 (29 Sep 2008)
%%abc-creator hum2abc beta
%%abcx-conversion-date 2019/03/15 08:36:49
%%humdrum-veritas 3053563106
%%humdrum-veritas-data 2771780913
%%linebreak <none>
%%barnumbers 0
L: 1/8
M: 2/4
%%staves {1 2}
V: 1 clef=bass
V: 2 clef=bass
K: B
[V:1] DF [I:setbarnb 1]| 
[V:2] z2 | 
[V:1] F2(F3/D/) | 
[V:2] G,,G,, G,,G,, | 
[V:1] D2DF | 
[V:2] G,,G,, G,,G,, | 
[V:1] D2(D3/B,/) | 
[V:2] z4 | 
[V:1] B,2B,D | 
[V:2] z4 | 
[V:1] B,2(B,3/F,/) | 
[V:2] z4 | 
[V:1] F,2D,F, | 
[V:2] z4 | 
[V:1] F,2F,3/D,/ ||  
[V:2] z4 ||  
[V:1] [M:3/4]D,2F,3/D,/ D,3/C,/ ||  
[V:2] [M:3/4]z6 ||  
[V:1] [M:2/4]D,4 | 
[V:2] [M:2/4]z4 | 
[V:1] D,4- | 
[V:2] z4 | 
[V:1] D,2z2 |]  
[V:2] z4 |]  



